X: 113206
T: JOHN CHEAP THE CHAPMAN
Q: "Reel."
R:  Reel.
%R: reel
B: James Kerr "Merry Melodies" v.1 p.13 s.2 #6
Z: 2017 John Chambers <jc:trillian.mit.edu>
M: C
L: 1/8
K: Gm
|: A |\
G2dG (BG)Bg | G2dB (AF)FA |\
G2dG (Bc)dB | Afcf AF F :|\
A |\
Gggd BcdB | GggB AFFA |
Gggd BcdB | Acfc AFFA |\
Gggd BcdB | GggB AFFA |\
Ggbg a^fg=e | fcdB AF F |]\
{G}"_Fine."G4 ||

% %newpage
%%sep 1 1 500
%%sep 1 1 500
%%center Set. 22nd.

%%sep 1 1 500
%%sep 1 1 500

